Adwaita++/apps/scalable/sigil.svg

<svg fill="none" height="128" viewBox="0 0 128 128" width="128" xmlns="http://www.w3.org/2000/svg" xmlns:xlink="http://www.w3.org/1999/xlink">
  <linearGradient id="paint1_linear" gradientUnits="userSpaceOnUse" x1="108" x2="116" y1="79" y2="79">
    <stop offset="0" stop-color="#e8e7e4"/>
    <stop offset=".511" stop-color="#fff"/>
    <stop offset="1" stop-color="#c2bfba"/>
  </linearGradient>
  <path d="m12 32v84h96c4.432 0 8-3.568 8-8v-68c0-4.432-3.568-8-8-8z" fill="#a51d2d"/>
  <path d="m14 44v70h94c4.432 0 8-3.568 8-8v-54c0-4.432-3.568-8-8-8z" fill="url(#paint1_linear)"/>
  <path d="m12 14v94h96c4.432 0 8-3.568 8-8v-78c0-4.432-3.568-8-8-8z" fill="#a51d2d"/>
  <path d="m12 12v94h96c4.432 0 8-3.568 8-8v-78c0-4.432-3.568-8-8-8z" fill="#c01c28"/>
  <path d="m20 12h-8v94h8z" fill="#3d3846"/>
  <path d="m12 106v10h8v-2h-6v-6h6v-2z" fill="#241f31"/>
  <path d="m15 106v-94" opacity=".15" stroke="#fff" stroke-width="2"/>
  <path d="m58.6055 73.1407c1.469-.5119 4.5074.1686 5.0682 3.0452 1.8836-2.3566 2.721-5.3108-.9109-8.0609-1.1673-.8813-2.5153-1.4932-3.9471-1.7913-2.7618-.568-4.4164-.5375-6.6793.667s-3.9842 3.7754-4.251 5.6025c-.4316 2.9654.8051 8.9575 5.1619 12.5392 4.4487 4.4384 11.5292 4.7513 13.9656 4.4783 11.7506-1.318 20.0581-11.5315 11.5372-21.4957-2.9895-3.2841-7.7399-5.1225-11.5372-6.8667-6.873-3.1572-13.2829-5.1677-17.0017-8.3594-3.5921-3.0824-4.7459-7.1707-4.2506-11.6435.4523-4.087 2.9533-7.5705 5.7684-9.8518 6.3763-5.1686 15.8147-5.0364 25.5028-.5971l5.465-1.1942c.6854.2067 1.1942.8065 1.5183 1.7913.1353.6823-.7079 1.3439-.6074 1.9854 2.4758 8.073.4074 13.7652-4.8576 15.3301l-1.5183-.5971c1.8097-3.7327 1.8129-7.3127 0-10.7478-3.9866-4.7389-8.4393-7.0276-13.3581-6.8662-15.3534.5025-14.5273 15.9438-2.1257 19.4053 1.8939.945 11.2172 4.1439 14.2695 5.6147 4.1803 2.0142 7.1151 4.1234 8.8045 6.3274 4.9808 8.2447 4.6007 18.6191-2.1252 25.0783-6.648 6.3839-20.3136 6.9868-30.9678 3.2841l-5.161.8956c-.9503-.0538-1.5541-.3492-1.8218-.8956l-.3034-5.0754c-5.0369-10.8474 1.5613-21.2823 10.6263-21.7942 4.7369-.2677 10.5143 2.4565 12.1438 6.5681 1.6407 4.1394-1.547 9.5881-4.2501 10.7474-2.7035 1.1601-7.4315-.9885-6.6798-4.4778.3022-1.4023 1.3346-2.6314 2.5225-3.0452z" fill="#241f31" opacity=".4"/>
  <path d="m57.3556 72.1407c1.469-.5119 4.5074.1686 5.0682 3.0452 1.8836-2.3566 2.721-5.3108-.9109-8.0609-1.1673-.8813-2.5153-1.4932-3.9471-1.7913-2.7618-.568-4.4164-.5375-6.6793.667s-3.9843 3.7754-4.251 5.6025c-.4317 2.9654.8051 8.9575 5.1619 12.5392 4.4487 4.4384 11.5292 4.7513 13.9656 4.4783 11.7506-1.318 20.058-11.5315 11.5372-21.4957-2.9895-3.2841-7.7399-5.1225-11.5372-6.8667-6.873-3.1572-13.2829-5.1677-17.0018-8.3594-3.592-3.0824-4.7459-7.1707-4.2505-11.6435.4523-4.087 2.9532-7.5705 5.7684-9.8518 6.3762-5.1686 15.8147-5.0364 25.5028-.5971l5.4649-1.1942c.6854.2067 1.1942.8065 1.5183 1.7913.1354.6823-.7078 1.3439-.6074 1.9854 2.4758 8.073.4075 13.7652-4.8575 15.3301l-1.5183-.5971c1.8097-3.7327 1.8128-7.3127 0-10.7478-3.9867-4.7389-8.4394-7.0276-13.3581-6.8662-15.3535.5025-14.5273 15.9438-2.1258 19.4053 1.894.945 11.2172 4.1439 14.2695 5.6147 4.1803 2.0142 7.1152 4.1234 8.8046 6.3274 4.9808 8.2447 4.6006 18.6191-2.1253 25.0783-6.6479 6.3839-20.3136 6.9868-30.9677 3.2841l-5.161.8956c-.9504-.0538-1.5542-.3492-1.8218-.8956l-.3035-5.0754c-5.0368-10.8474 1.5614-21.2823 10.6264-21.7942 4.7369-.2677 10.5143 2.4565 12.1438 6.5681 1.6406 4.1394-1.547 9.5881-4.2501 10.7474-2.7036 1.1601-7.4315-.9885-6.6798-4.4778.3021-1.4023 1.3345-2.6314 2.5225-3.0452z" fill="#f6f5f4"/>
</svg>

<svg xmlns="http://www.w3.org/2000/svg" fill="none" width="128" height="128" viewBox="0 0 128 128">
 <path fill="url(#paint0_linear)" d="M12 32V116H108C112.432 116 116 112.432 116 108V40C116 35.568 112.432 32 108 32H12Z"/>
 <path fill="url(#paint1_linear)" d="M14 44V114H108C112.432 114 116 110.432 116 106V52C116 47.568 112.432 44 108 44H14Z"/>
 <path fill="url(#paint2_linear)" d="M12 14V108H108C112.432 108 116 104.432 116 100V22C116 17.568 112.432 14 108 14H12Z"/>
 <path fill="url(#paint3_linear)" d="M12 12V106H108C112.432 106 116 102.432 116 98V20C116 15.568 112.432 12 108 12H12Z"/>
 <path fill="#3D3846" d="M20 12H12V106H20V12Z"/>
 <path fill="#241F31" d="M12 106V116H20V114H14V108H20V106H12Z"/>
 <path opacity=".15" stroke="#fff" stroke-width="2" d="M15 106V12"/>
 <path fill="url(#paint4_linear)" opacity=".4" d="M58.6055 73.1407C60.0745 72.6288 63.1129 73.3093 63.6737 76.1859C65.5573 73.8293 66.3947 70.8751 62.7628 68.125C61.5955 67.2437 60.2475 66.6318 58.8157 66.3337C56.0539 65.7657 54.3993 65.7962 52.1364 67.0007C49.8735 68.2052 48.1522 70.7761 47.8854 72.6032C47.4538 75.5686 48.6905 81.5607 53.0473 85.1424C57.496 89.5808 64.5765 89.8937 67.0129 89.6207C78.7635 88.3027 87.071 78.0892 78.5501 68.125C75.5606 64.8409 70.8102 63.0025 67.0129 61.2583C60.1399 58.1011 53.73 56.0906 50.0112 52.8989C46.4191 49.8165 45.2653 45.7282 45.7606 41.2554C46.2129 37.1684 48.7139 33.6849 51.529 31.4036C57.9053 26.235 67.3437 26.3672 77.0318 30.8065L82.4968 29.6123C83.1822 29.819 83.691 30.4188 84.0151 31.4036C84.1504 32.0859 83.3072 32.7475 83.4077 33.389C85.8835 41.462 83.8151 47.1542 78.5501 48.7191L77.0318 48.122C78.8415 44.3893 78.8447 40.8093 77.0318 37.3742C73.0452 32.6353 68.5925 30.3466 63.6737 30.508C48.3203 31.0105 49.1464 46.4518 61.548 49.9133C63.4419 50.8583 72.7652 54.0572 75.8175 55.528C79.9978 57.5422 82.9326 59.6514 84.622 61.8554C89.6028 70.1001 89.2227 80.4745 82.4968 86.9337C75.8488 93.3176 62.1832 93.9205 51.529 90.2178L46.368 91.1134C45.4177 91.0596 44.8139 90.7642 44.5462 90.2178L44.2428 85.1424C39.2059 74.295 45.8041 63.8601 54.8691 63.3482C59.606 63.0805 65.3834 65.8047 67.0129 69.9163C68.6536 74.0557 65.4659 79.5044 62.7628 80.6637C60.0593 81.8238 55.3313 79.6752 56.083 76.1859C56.3852 74.7836 57.4176 73.5545 58.6055 73.1407Z"/>
 <path fill="url(#paint5_linear)" d="M57.3556 72.1407C58.8246 71.6288 61.863 72.3093 62.4238 75.1859C64.3074 72.8293 65.1448 69.8751 61.5129 67.125C60.3456 66.2437 58.9976 65.6318 57.5658 65.3337C54.804 64.7657 53.1494 64.7962 50.8865 66.0007C48.6236 67.2052 46.9022 69.7761 46.6355 71.6032C46.2038 74.5686 47.4406 80.5607 51.7974 84.1424C56.2461 88.5808 63.3266 88.8937 65.763 88.6207C77.5136 87.3027 85.821 77.0892 77.3002 67.125C74.3107 63.8409 69.5603 62.0025 65.763 60.2583C58.89 57.1011 52.4801 55.0906 48.7612 51.8989C45.1692 48.8165 44.0153 44.7282 44.5107 40.2554C44.963 36.1684 47.4639 32.6849 50.2791 30.4036C56.6553 25.235 66.0938 25.3672 75.7819 29.8065L81.2468 28.6123C81.9322 28.819 82.441 29.4188 82.7651 30.4036C82.9005 31.0859 82.0573 31.7475 82.1577 32.389C84.6335 40.462 82.5652 46.1542 77.3002 47.7191L75.7819 47.122C77.5916 43.3893 77.5947 39.8093 75.7819 36.3742C71.7952 31.6353 67.3425 29.3466 62.4238 29.508C47.0703 30.0105 47.8965 45.4518 60.298 48.9133C62.192 49.8583 71.5152 53.0572 74.5675 54.528C78.7478 56.5422 81.6827 58.6514 83.3721 60.8554C88.3529 69.1001 87.9727 79.4745 81.2468 85.9337C74.5989 92.3176 60.9332 92.9205 50.2791 89.2178L45.1181 90.1134C44.1677 90.0596 43.5639 89.7642 43.2963 89.2178L42.9928 84.1424C37.956 73.295 44.5542 62.8601 53.6192 62.3482C58.3561 62.0805 64.1335 64.8047 65.763 68.9163C67.4036 73.0557 64.216 78.5044 61.5129 79.6637C58.8093 80.8238 54.0814 78.6752 54.8331 75.1859C55.1352 73.7836 56.1676 72.5545 57.3556 72.1407Z"/>
 <defs>
  <linearGradient id="paint0_linear" x1="12" x2="116" y1="74" y2="74" gradientUnits="userSpaceOnUse">
   <stop stop-color="#A51D2D"/>
  </linearGradient>
  <linearGradient id="paint1_linear" x1="108" x2="116" y1="79" y2="79" gradientUnits="userSpaceOnUse">
   <stop stop-color="#E8E7E4"/>
   <stop offset=".511" stop-color="#fff"/>
   <stop offset="1" stop-color="#C2BFBA"/>
  </linearGradient>
  <linearGradient id="paint2_linear" x1="12" x2="116" y1="61" y2="61" gradientUnits="userSpaceOnUse">
   <stop stop-color="#A51D2D"/>
  </linearGradient>
  <linearGradient id="paint3_linear" x1="12" x2="116" y1="59" y2="59" gradientUnits="userSpaceOnUse">
   <stop stop-color="#C01C28"/>
  </linearGradient>
  <linearGradient id="paint4_linear" x1="42.5" x2="88" y1="60" y2="60" gradientUnits="userSpaceOnUse">
   <stop stop-color="#241F31"/>
  </linearGradient>
  <linearGradient id="paint5_linear" x1="41.25" x2="86.75" y1="59" y2="59" gradientUnits="userSpaceOnUse">
   <stop stop-color="#F6F5F4"/>
  </linearGradient>
 </defs>
</svg>
